img/map-markers/helmet.svg

<svg width="150" height="150" viewBox="0 0 150 150" fill="none" xmlns="http://www.w3.org/2000/svg">
<g filter="url(#filter0_d_2_143)">
<circle cx="75" cy="65" r="25" fill="white"/>
</g>
<circle cx="75" cy="65" r="25" fill="white"/>
<circle cx="75.236" cy="64.7641" r="21.934" fill="#FC6733"/>
<path d="M72.0472 68.1888H79.1758V71.4963H72.0472V68.1888Z" fill="white"/>
<path d="M79.0155 58.7565V56.5516C79.0155 55.6941 78.3347 55 77.4937 55H73.7292C72.8882 55 72.2074 55.6941 72.2074 56.5516V58.7565C70.2451 59.9406 68.9235 62.1049 68.9235 64.5955V72.3944C68.9235 73.6193 69.8846 74.5993 71.086 74.5993H80.0967C81.2981 74.5993 82.2592 73.6193 82.2592 72.3944V64.5955C82.2592 62.1046 80.9776 59.9406 79.0154 58.7562L79.0155 58.7565ZM73.5288 56.5516C73.5288 56.4291 73.6088 56.3475 73.729 56.3475H77.4935C77.6137 56.3475 77.6937 56.4291 77.6937 56.5516V58.1441C77.0529 57.9399 76.3321 57.7766 75.6112 57.7766C74.8904 57.7766 74.1695 57.8991 73.5287 58.1441L73.5288 56.5516ZM80.0164 71.9457C80.0164 72.1907 79.8162 72.3948 79.5759 72.3948H71.6064C71.3661 72.3948 71.166 72.1907 71.166 71.9457V67.7398C71.166 67.4948 71.3661 67.2907 71.6064 67.2907H79.6161C79.8564 67.2907 80.0566 67.4948 80.0566 67.7398V71.9457H80.0164ZM79.8963 63.7383H71.8869C71.6467 63.7383 71.4465 63.5342 71.4465 63.2892C71.4465 63.0442 71.6467 62.8401 71.8869 62.8401H79.8963C80.1366 62.8401 80.3368 63.0442 80.3368 63.2892C80.3369 63.5341 80.1366 63.7383 79.8963 63.7383Z" fill="white"/>
<path d="M83.1402 65.4533H85.2227V71.8232H83.1402V65.4533Z" fill="white"/>
<path d="M66 65.4533H68.0825V71.8232H66V65.4533Z" fill="white"/>
<path d="M70.7256 58.7565L70.4853 57.7356C70.4051 57.2458 69.9647 56.8783 69.444 56.8783C68.7632 56.8783 68.2426 57.5316 68.4028 58.2257L69.0035 60.9207C69.444 60.1039 70.0048 59.369 70.7256 58.7565Z" fill="white"/>
<path d="M81.7787 56.8785C81.2581 56.8785 80.8577 57.246 80.7376 57.736L80.4973 58.7569C81.178 59.3693 81.7787 60.1043 82.2193 60.9209L82.8199 58.226C82.9801 57.5317 82.4595 56.8785 81.7787 56.8785Z" fill="white"/>
<defs>
<filter id="filter0_d_2_143" x="0" y="0" width="150" height="150" filterUnits="userSpaceOnUse" color-interpolation-filters="sRGB">
<feFlood flood-opacity="0" result="BackgroundImageFix"/>
<feColorMatrix in="SourceAlpha" type="matrix" values="0 0 0 0 0 0 0 0 0 0 0 0 0 0 0 0 0 0 127 0" result="hardAlpha"/>
<feOffset dy="10"/>
<feGaussianBlur stdDeviation="25"/>
<feColorMatrix type="matrix" values="0 0 0 0 0 0 0 0 0 0 0 0 0 0 0 0 0 0 0.1 0"/>
<feBlend mode="normal" in2="BackgroundImageFix" result="effect1_dropShadow_2_143"/>
<feBlend mode="normal" in="SourceGraphic" in2="effect1_dropShadow_2_143" result="shape"/>
</filter>
</defs>
</svg>

<svg width="150" height="150" viewBox="0 0 150 150" fill="none" xmlns="http://www.w3.org/2000/svg"><circle cx="75" cy="65" r="25" fill="#fff" filter="url(#a)"/><circle cx="75" cy="65" r="25" fill="#fff"/><circle cx="75.236" cy="64.764" r="21.934" fill="#FC6733"/><path d="M72.047 68.189h7.129v3.307h-7.129V68.19z" fill="#fff"/><path d="M79.016 58.757v-2.205c0-.858-.681-1.552-1.522-1.552h-3.765c-.84 0-1.522.694-1.522 1.552v2.205a6.802 6.802 0 0 0-3.283 5.839v7.798c0 1.225.96 2.205 2.162 2.205h9.01c1.202 0 2.163-.98 2.163-2.205v-7.799c0-2.49-1.281-4.654-3.244-5.839zm-5.487-2.205c0-.123.08-.205.2-.205h3.764c.12 0 .2.082.2.205v1.592c-.64-.204-1.36-.367-2.082-.367-.72 0-1.442.122-2.082.367v-1.592zm6.487 15.394c0 .245-.2.449-.44.449h-7.97a.449.449 0 0 1-.44-.45V67.74c0-.245.2-.45.44-.45h8.01c.24 0 .44.205.44.45v4.206h-.04zm-.12-8.208h-8.01a.449.449 0 0 1 0-.898h8.01a.449.449 0 0 1 0 .898zm3.244 1.715h2.083v6.37H83.14v-6.37zm-17.14 0h2.082v6.37H66v-6.37zm4.726-6.696l-.24-1.021c-.08-.49-.521-.858-1.042-.858-.68 0-1.201.654-1.041 1.348l.6 2.695a7.423 7.423 0 0 1 1.723-2.164zm11.053-1.878c-.52 0-.921.367-1.041.857l-.24 1.02a8.152 8.152 0 0 1 1.721 2.165l.6-2.695c.161-.694-.36-1.347-1.04-1.347z" fill="#fff"/><defs><filter id="a" x="0" y="0" width="150" height="150" filterUnits="userSpaceOnUse" color-interpolation-filters="sRGB"><feFlood flood-opacity="0" result="BackgroundImageFix"/><feColorMatrix in="SourceAlpha" values="0 0 0 0 0 0 0 0 0 0 0 0 0 0 0 0 0 0 127 0" result="hardAlpha"/><feOffset dy="10"/><feGaussianBlur stdDeviation="25"/><feColorMatrix values="0 0 0 0 0 0 0 0 0 0 0 0 0 0 0 0 0 0 0.1 0"/><feBlend in2="BackgroundImageFix" result="effect1_dropShadow_2_143"/><feBlend in="SourceGraphic" in2="effect1_dropShadow_2_143" result="shape"/></filter></defs></svg>
